flaticon/symbols/antimony.svg

<svg xmlns="http://www.w3.org/2000/svg" width="32" height="32" viewBox="0 0 24 24">
    <path d="M 13.199219 7.285156 L 13.199219 5.601562 L 14.964844 5.601562 C 15.386719 7.078125 16.578125 8.261719 18.078125 8.65625 C 18.449219 8.753906 18.832031 8.675781 19.132812 8.445312 C 19.429688 8.214844 19.601562 7.871094 19.601562 7.496094 C 19.601562 6.949219 19.230469 6.472656 18.699219 6.335938 C 17.816406 6.109375 17.199219 5.3125 17.199219 4.398438 C 17.199219 3.488281 17.816406 2.691406 18.699219 2.464844 C 19.230469 2.324219 19.601562 1.847656 19.601562 1.304688 C 19.601562 0.929688 19.429688 0.585938 19.132812 0.355469 C 18.832031 0.125 18.449219 0.046875 18.078125 0.144531 C 16.578125 0.539062 15.386719 1.722656 14.964844 3.199219 L 13.199219 3.199219 L 13.199219 1.199219 C 13.199219 0.539062 12.660156 0 12 0 C 11.339844 0 10.800781 0.539062 10.800781 1.199219 L 10.800781 3.199219 L 9.03125 3.199219 C 8.613281 1.722656 7.421875 0.539062 5.921875 0.144531 C 5.550781 0.046875 5.167969 0.125 4.867188 0.355469 C 4.570312 0.585938 4.398438 0.929688 4.398438 1.304688 C 4.398438 1.847656 4.769531 2.324219 5.300781 2.464844 C 6.183594 2.691406 6.800781 3.488281 6.800781 4.398438 C 6.800781 5.3125 6.183594 6.109375 5.300781 6.335938 C 4.769531 6.472656 4.398438 6.949219 4.398438 7.496094 C 4.398438 7.871094 4.570312 8.214844 4.867188 8.445312 C 5.167969 8.675781 5.550781 8.753906 5.921875 8.65625 C 7.421875 8.261719 8.613281 7.078125 9.03125 5.597656 L 10.800781 5.597656 L 10.800781 7.285156 C 6.628906 7.886719 3.496094 11.5625 3.601562 15.8125 C 3.710938 20.164062 7.199219 23.753906 11.539062 23.988281 C 11.695312 23.996094 11.851562 24 12.003906 24 C 14.164062 24 16.195312 23.191406 17.773438 21.695312 C 19.46875 20.089844 20.398438 17.925781 20.398438 15.601562 C 20.398438 11.386719 17.328125 7.875 13.199219 7.285156 Z M 17.222656 21.113281 C 15.691406 22.566406 13.691406 23.304688 11.582031 23.1875 C 7.65625 22.976562 4.5 19.730469 4.402344 15.792969 C 4.304688 11.835938 7.308594 8.429688 11.238281 8.039062 L 11.601562 8.003906 L 11.601562 4.800781 L 8.394531 4.800781 L 8.328125 5.121094 C 8.054688 6.449219 7.03125 7.535156 5.714844 7.882812 C 5.589844 7.914062 5.457031 7.890625 5.355469 7.808594 C 5.296875 7.765625 5.199219 7.664062 5.199219 7.496094 C 5.199219 7.316406 5.324219 7.15625 5.503906 7.109375 C 6.738281 6.789062 7.601562 5.675781 7.601562 4.398438 C 7.601562 3.125 6.738281 2.007812 5.503906 1.691406 C 5.324219 1.644531 5.199219 1.484375 5.199219 1.304688 C 5.199219 1.132812 5.296875 1.035156 5.355469 0.988281 C 5.457031 0.910156 5.589844 0.886719 5.714844 0.917969 C 7.03125 1.265625 8.054688 2.347656 8.328125 3.679688 L 8.394531 4 L 11.601562 4 L 11.601562 1.199219 C 11.601562 0.980469 11.777344 0.800781 12 0.800781 C 12.21875 0.800781 12.398438 0.980469 12.398438 1.199219 L 12.398438 4 L 15.605469 4 L 15.671875 3.679688 C 15.945312 2.347656 16.96875 1.265625 18.285156 0.917969 C 18.410156 0.886719 18.542969 0.910156 18.644531 0.988281 C 18.703125 1.035156 18.800781 1.132812 18.800781 1.304688 C 18.800781 1.484375 18.675781 1.644531 18.496094 1.691406 C 17.261719 2.007812 16.398438 3.125 16.398438 4.398438 C 16.398438 5.675781 17.261719 6.789062 18.496094 7.109375 C 18.675781 7.15625 18.800781 7.316406 18.800781 7.496094 C 18.800781 7.664062 18.703125 7.765625 18.644531 7.808594 C 18.542969 7.890625 18.410156 7.914062 18.285156 7.882812 C 16.96875 7.535156 15.945312 6.449219 15.671875 5.121094 L 15.605469 4.800781 L 12.398438 4.800781 L 12.398438 8.003906 L 12.761719 8.039062 C 16.660156 8.425781 19.601562 11.679688 19.601562 15.601562 C 19.601562 17.703125 18.757812 19.664062 17.222656 21.113281 Z M 17.222656 21.113281"/>
    <path d="M 12 8.800781 C 8.25 8.800781 5.199219 11.851562 5.199219 15.601562 C 5.199219 19.347656 8.25 22.398438 12 22.398438 C 15.75 22.398438 18.800781 19.347656 18.800781 15.601562 C 18.800781 11.851562 15.75 8.800781 12 8.800781 Z M 12 21.601562 C 8.691406 21.601562 6 18.90625 6 15.601562 C 6 12.292969 8.691406 9.601562 12 9.601562 C 15.308594 9.601562 18 12.292969 18 15.601562 C 18 18.90625 15.308594 21.601562 12 21.601562 Z M 12 21.601562"/>
</svg>

<svg xmlns="http://www.w3.org/2000/svg" width="32" height="32" viewBox="0 0 24 24">
    <path d="M13.2 7.285V5.602h1.765a4.438 4.438 0 0 0 3.113 3.054c.371.098.754.02 1.055-.21a1.199 1.199 0 0 0-.434-2.11 1.998 1.998 0 0 1 0-3.871c.531-.14.903-.617.903-1.16a1.212 1.212 0 0 0-1.523-1.16 4.438 4.438 0 0 0-3.114 3.054h-1.766v-2C13.2.54 12.66 0 12 0s-1.2.54-1.2 1.2v2H9.032A4.426 4.426 0 0 0 5.921.144a1.212 1.212 0 0 0-1.054.21c-.297.23-.469.575-.469.95 0 .543.372 1.02.903 1.16a1.997 1.997 0 0 1 0 3.87 1.199 1.199 0 0 0-.434 2.11c.301.23.684.309 1.055.211a4.424 4.424 0 0 0 3.11-3.058H10.8v1.687c-4.172.602-7.305 4.277-7.2 8.527.11 4.352 3.598 7.942 7.938 8.176a8.316 8.316 0 0 0 6.234-2.293 8.315 8.315 0 0 0 2.625-6.093A8.37 8.37 0 0 0 13.2 7.285zm4.023 13.828a7.509 7.509 0 0 1-5.641 2.075c-3.926-.211-7.082-3.458-7.18-7.395-.097-3.957 2.907-7.363 6.836-7.754l.364-.035V4.8H8.395l-.067.32a3.635 3.635 0 0 1-2.613 2.762.41.41 0 0 1-.36-.074.385.385 0 0 1-.156-.313c0-.18.125-.34.305-.387A2.8 2.8 0 0 0 7.602 4.4c0-1.274-.864-2.391-2.098-2.708a.404.404 0 0 1-.305-.386c0-.172.098-.27.156-.317a.42.42 0 0 1 .36-.07A3.629 3.629 0 0 1 8.328 3.68l.067.32h3.207V1.2a.398.398 0 1 1 .796 0V4h3.207l.067-.32A3.629 3.629 0 0 1 18.285.918a.42.42 0 0 1 .36.07.393.393 0 0 1 .156.317c0 .18-.125.34-.305.386a2.796 2.796 0 0 0-2.098 2.707 2.8 2.8 0 0 0 2.098 2.711c.18.047.305.207.305.387 0 .168-.098.27-.156.313a.41.41 0 0 1-.36.074 3.635 3.635 0 0 1-2.613-2.762l-.067-.32h-3.207v3.203l.364.035a7.572 7.572 0 0 1 6.84 7.563 7.515 7.515 0 0 1-2.38 5.511zm0 0"/>
    <path d="M12 8.8c-3.75 0-6.8 3.052-6.8 6.802 0 3.746 3.05 6.796 6.8 6.796s6.8-3.05 6.8-6.796c0-3.75-3.05-6.801-6.8-6.801zm0 12.802a6.01 6.01 0 0 1-6-6c0-3.309 2.691-6 6-6s6 2.691 6 6c0 3.304-2.691 6-6 6zm0 0"/>
</svg>
